src/amo/components/Icon/img/permissions/top-sites.svg

<svg xmlns="http://www.w3.org/2000/svg" xmlns:xlink="http://www.w3.org/1999/xlink" width="24" height="24" viewBox="0 0 24 24">
  <defs>
    <path id="top-sites-a" d="M2.5,1.5 L9.5,1.5 C10.0522847,1.5 10.5,1.94771525 10.5,2.5 L10.5,9.5 C10.5,10.0522847 10.0522847,10.5 9.5,10.5 L2.5,10.5 C1.94771525,10.5 1.5,10.0522847 1.5,9.5 L1.5,2.5 C1.5,1.94771525 1.94771525,1.5 2.5,1.5 Z M14.5,1.5 L21.5,1.5 C22.0522847,1.5 22.5,1.94771525 22.5,2.5 L22.5,9.5 C22.5,10.0522847 22.0522847,10.5 21.5,10.5 L14.5,10.5 C13.9477153,10.5 13.5,10.0522847 13.5,9.5 L13.5,2.5 C13.5,1.94771525 13.9477153,1.5 14.5,1.5 Z M2.5,13.5 L9.5,13.5 C10.0522847,13.5 10.5,13.9477153 10.5,14.5 L10.5,21.5 C10.5,22.0522847 10.0522847,22.5 9.5,22.5 L2.5,22.5 C1.94771525,22.5 1.5,22.0522847 1.5,21.5 L1.5,14.5 C1.5,13.9477153 1.94771525,13.5 2.5,13.5 Z M14.5,13.5 L21.5,13.5 C22.0522847,13.5 22.5,13.9477153 22.5,14.5 L22.5,21.5 C22.5,22.0522847 22.0522847,22.5 21.5,22.5 L14.5,22.5 C13.9477153,22.5 13.5,22.0522847 13.5,21.5 L13.5,14.5 C13.5,13.9477153 13.9477153,13.5 14.5,13.5 Z"/>
  </defs>
  <g fill="none" fill-rule="evenodd">
    <rect width="24" height="24"/>
    <mask id="top-sites-b" fill="#fff">
      <use xlink:href="#top-sites-a"/>
    </mask>
    <g fill="#0F1126" mask="url(#top-sites-b)">
      <rect width="24" height="24"/>
    </g>
  </g>
</svg>

<svg xmlns="http://www.w3.org/2000/svg" xmlns:xlink="http://www.w3.org/1999/xlink" width="24" height="24"><defs><path id="a" d="M2.5 1.5h7a1 1 0 0 1 1 1v7a1 1 0 0 1-1 1h-7a1 1 0 0 1-1-1v-7a1 1 0 0 1 1-1Zm12 0h7a1 1 0 0 1 1 1v7a1 1 0 0 1-1 1h-7a1 1 0 0 1-1-1v-7a1 1 0 0 1 1-1Zm-12 12h7a1 1 0 0 1 1 1v7a1 1 0 0 1-1 1h-7a1 1 0 0 1-1-1v-7a1 1 0 0 1 1-1Zm12 0h7a1 1 0 0 1 1 1v7a1 1 0 0 1-1 1h-7a1 1 0 0 1-1-1v-7a1 1 0 0 1 1-1Z"/></defs><g fill="none" fill-rule="evenodd"><path d="M0 0h24v24H0z"/><mask id="b" fill="#fff"><use xlink:href="#a"/></mask><g fill="#0F1126" mask="url(#b)"><path d="M0 0h24v24H0z"/></g></g></svg>
